X:7831
T:Norsk dans
T:Norwegian dance
C:anon.
O:Norway
R:Hambo
Z:Transcribed by Frank Nordberg - http://www.musicaviva.com
F:http://abc.musicaviva.com/tunes/norway/norsk-dans01/norsk-dans01-1.abc
%v = downstroke
M:3/4
L:1/8
K:D
vF2AFAF|G2BGBG|A2cAce|d2fd AG|
F2AFAF|G2BGBG|A2cAce|d4z2|
vf2fdfa|g2gfed|c2eceg|f2dBAG|
F2AFAF|G2BGBG|A2cAce|d2D4|]
W:
W:
W:  From Musica Viva - http://www.musicaviva.com
W:  the Internet center for free sheet music downloads.
